X: 21003
T: Julia Delaney's
R: reel
M: 4/4
K: Eminor
d|:"Em"edBA G2EG|"D"F2DF "Em"GEGB|edBA G2EG|"Am"Bee^d "B"efgf|
"Em"edBA G2EG|"D"FEDF "Em"GEE^d|edBA "C"GEEG|1 "Bm"Bee^d "Em"e4:|2 "Bm"Bee^d "Em"e3f||
|:g2gf gbag|"D"fdad bdad|"Em"gfef gbag|"Bm"fedf "Em"e^def|
g2gf gbag|"D"fdad bdad|"Em"gfeg "C"fedc|1 "Bm"Bee^d "Em"e3f:|2 "Bm"Bee^d "Em"e4||

